X: 6
T: Thomond Bridge
R: hornpipe
M: 4/4
L: 1/8
K: Dmaj
|: B>c |d>BA>F (3GAB A>G | F2 D2 D2 (3cde | f<ed>B c<de>d | c2 A2 A2 B>A |
G>B (3efg F>A (3def | E>G (3cde D>F (3Bcd | c<de>f (3gfe c>e | d2 A2 D2 :|
|: (3GFE |
D>dc>d F>dc>d | (3fed c>B (3AGF E>D | E>e^d>e B>ed>e | (3gg/f/e (3dcB (3AGF (3EDC |
D>dc>d F>dc>d | f>dc<d A<d (3FED | G>AB>c d>AB>G | F<dE>d D2 :|


